!!!COM: Haydn, Franz Joseph
!!!OPR: String Quartet in C Major
!!!ONM: Opus 50, No. 2
!!!OTL: Grave 
!!!OMV: 4
!!!SCT: H III:45
!!!SCA: Thematisch-bibliographisches Werkevererzeichnis (A. van Hoboken)
!!!YOR: Trautwein Edition
!!!EED: Frances Bennion
!!!ENC: Frances Bennion
!!!CDT: 1732/3/31/-1809/5/31/
!!!OCY: Österreich
!!!YEC: Copyright (c) 1994, 2000 Center for Computer Assisted Research in the Humanities
!!!YEM: Rights to all derivative editions reserved.
!!!YEM: Refer to licensing agreement for further details.
!!!YEN: United States of America
**kern	**kern	**kern	**kern
*k[]	*k[]	*k[]	*k[]
*C:	*C:	*C:	*C:
*clefG	*clefG	*clefC3	*clefF4
*M2/4	*M2/4	*M2/4	*M2/4
*tb32	*tb32	*tb32	*tb32
=0-	=0-	=0-	=0-
4.r	4.r	4.r	4.r
8r	16e	16c	8r
.	16f	16d	.
=1	=1	=1	=1
4.r	8g	8e	2r
.	8g	8e	.
.	8g	8e	.
8cc	8g	8e	.
=2	=2	=2	=2
16b	4.g	4.f	8r
16cc	.	.	.
16dd	.	.	16G
16b	.	.	16A
8g	.	.	8B
8r	16e	16c	8r
.	16f	16d	.
=3	=3	=3	=3
4.r	8g	8e	2r
.	8g	8e	.
.	8g	8e	.
8gg	8g	8e	.
=4	=4	=4	=4
16ff	4.g	4.f	8r
16ee	.	.	.
16dd	.	.	16B
16cc	.	.	16c
8b	.	.	8d
8r	16e	16c	8r
.	16f	16d	.
=5	=5	=5	=5
4.r	8g	8e	2r
.	8g	8e	.
.	8g	8e	.
8cc	8g	8e	.
=6	=6	=6	=6
16b	4.g	4f	4.r
16cc	.	.	.
16dd	.	.	.
16b	.	.	.
8cc	.	8e	.
8ee	8G	8c	8C
=7	=7	=7	=7
4g	4A	8c	8D
.	.	16B	8D
.	.	16c	.
8.f	4B	8d	8GG
.	.	8d	8GG
32e	.	.	.
32f	.	.	.
=8	=8	=8	=8
4e	4c	4c	16CC
.	.	.	16C
.	.	.	16BB
.	.	.	16C
8r	4r	8r	16D
.	.	.	16C
16cc	.	16E	16BB
16ee	.	16G	16C
=9	=9	=9	=9
8ff	8cc	8F	16AA
.	.	.	16C
8ee	8cc	8G	16GG
.	.	.	16C
8ff	8cc	8A	16AA
.	.	.	16C
8aa	8cc	8F	16FF
.	.	.	16C
=10	=10	=10	=10
16gg	4cc	4C	16EE
16aa	.	.	16C
16ff	.	.	16DD
16gg	.	.	16C
8ee	4r	8r	16CC
.	.	.	16C
16cc	.	16E	16BB-
16ee	.	16G	16C
=11	=11	=11	=11
8ff	8cc	8F	16AA
.	.	.	16C
8ee	8cc	8G	16GG
.	.	.	16C
8ff	8cc	8A	16AA
.	.	.	16C
8aa	8cc	8F	16FF
.	.	.	16C
=12	=12	=12	=12
16gg	4cc	4C	16EE
16aa	.	.	16C
16ff	.	.	16DD
16gg	.	.	16C
8ee	4r	8r	16CC
.	.	.	16C
16cc	.	16e	16BB-
16ee	.	16g	16C
=13	=13	=13	=13
8ff	8cc	8f	16AA
.	.	.	16C
8ee	8cc	8g	16GG
.	.	.	16C
8ff	8cc	8a	16AA
.	.	.	16C
8aa	8cc	8f	16FF
.	.	.	16C
=14	=14	=14	=14
8gg	4cc	4c	16EE
.	.	.	16C
8bb	.	.	16DD
.	.	.	16C
8ccc	8r	4r	16EE
.	.	.	16C
8eee	8g	.	16CC
.	.	.	16C
=15	=15	=15	=15
2gg	16a	8r	8DD
.	16cc	.	.
.	16b	8a	8D
.	16cc	.	.
.	16dd	8a	8D
.	16cc	.	.
.	16b	8a	8D
.	16cc	.	.
=16	=16	=16	=16
2ff#	16a	8r	8DD
.	16cc	.	.
.	16b	8a	8D
.	16cc	.	.
.	16dd	8a	8D
.	16cc	.	.
.	16b	8a	8D
.	16cc	.	.
=17	=17	=17	=17
16ff	8b	8g	8GG
16gg	.	.	.
16ff	8r	8r	8G
16dd	.	.	.
16bb	8dd	8d	8G
16ccc	.	.	.
16bb	8r	8r	8G
16ff	.	.	.
=18	=18	=18	=18
16ddd	8ff	8B	8GG
16eee	.	.	.
16ddd	8r	4.r	8G
16bb	.	.	.
8fff	8ddd	.	8G
8fff	8ddd	.	8G
=19	=19	=19	=19
8fff	8ddd	16B	8GG
.	.	16c	.
8r	8r	16B	8r
.	.	16G	.
8ddd	8bb	16d	8GG
.	.	16e	.
8r	8r	16d	8r
.	.	16G	.
=20	=20	=20	=20
8bb	8ff	8f	8GG
4.r	4.r	4.r	4.r
=21	=21	=21	=21
8ff	16B	8d	8GG
.	16c	.	.
8r	16B	8r	8r
.	16G	.	.
8dd	16d	8f	8GG
.	16e	.	.
8r	16d	8r	8r
.	16G	.	.
=22	=22	=22	=22
4.b	4.f	4.d	4.GG
8r	16e	16c	8r
.	16f	16d	.
=23	=23	=23	=23
2r	8g	8e	4.r
.	8g	8e	.
.	8g	8e	.
.	8g	8e	8c
=24	=24	=24	=24
2r	4.g	4.f	16B
.	.	.	16c
.	.	.	16d
.	.	.	16B
.	.	.	8G
.	16e	16c	8r
.	16f	16d	.
=25	=25	=25	=25
4.r	8g	8e	2r
.	8g	8e	.
.	8g	8e	.
8ccc	8g	8e	.
=26	=26	=26	=26
16bb	16f	16d	4G
16ccc	16g	16e	.
16ddd	16f	16d	.
16eee	16e	16c	.
8fff	8d	8B	4r
8r	16e	16c	.
.	16f	16d	.
=27	=27	=27	=27
4.r	8g	8e	2r
.	8g	8e	.
.	8g	8e	.
8cc	8g	8e	.
=28	=28	=28	=28
8cc	8f	8d	2r
16b	16f	16d	.
16cc	16g	16e	.
8dd	8a	8f	.
8dd	8a	8f	.
=29	=29	=29	=29
8dd	8g	8e	2r
16cc#	16g	16e	.
16dd	16a	16f	.
8ee	8b-	8g	.
8ee	8b-	8g	.
=30	=30	=30	=30
16ee	[2a	8f	2r
16dd	.	.	.
16ff	.	8f	.
16ee	.	.	.
16gg	.	8f	.
16ff	.	.	.
16aa	.	8f	.
16gg	.	.	.
=31	=31	=31	=31
16bb-	2a]	4f	2r
16aa	.	.	.
16gg	.	.	.
16ff	.	.	.
16ee	.	4f#	.
16dd	.	.	.
16ee	.	.	.
16cc	.	.	.
=32	=32	=32	=32
16b	4g	4g	4.r
16g	.	.	.
16a	.	.	.
16b	.	.	.
16cc	4r	8r	.
16dd	.	.	.
16ee	.	16B	16G
16ff#	.	16c	16A
=33	=33	=33	=33
16gg	2r	8d	8B
16aa	.	.	.
16bb	.	8d	8B
16ccc	.	.	.
16ddd	.	8d	8B
16bb	.	.	.
16aa	.	8d	8B
16gg	.	.	.
=34	=34	=34	=34
16ff#	4.r	4c	4A
16gg	.	.	.
16aa	.	.	.
16gg	.	.	.
16bb	.	8r	4r
16aa	.	.	.
16ccc	16f#	16d	.
16bb	16g	16e	.
=35	=35	=35	=35
16ddd	8a	8f#	2r
16ccc	.	.	.
16bb	8a	8f#	.
16aa	.	.	.
16gg	8a	8f#	.
16ff#	.	.	.
16ee	8a	8f#	.
16dd	.	.	.
=36	=36	=36	=36
16cc	4g	4g	4.r
16b	.	.	.
16dd	.	.	.
16cc	.	.	.
16ee	8r	8r	.
16dd	.	.	.
16gg	16B	16d	16B
16ff#	16c	16c	16A
=37	=37	=37	=37
16aa	8d	8B	8G
16gg	.	.	.
16bb	8d	8B	8G
16gg	.	.	.
16ff#	8d	8B	8G
16ee	.	.	.
16dd	8g	16c#	8E
16cc#	.	16e	.
=38	=38	=38	=38
16d	4f#	4.d	4D
16dd	.	.	.
16ee-	.	.	.
16dd	.	.	.
16ee	8r	.	4r
16dd	.	.	.
16ff#	8cc	8d	.
16dd	.	.	.
=39	=39	=39	=39
16gg	16b	16dd	4.r
16dd	16cc	16ee	.
16aa	16a	16cc	.
16dd	16b	16dd	.
16bb	8g	8b	.
16dd	.	.	.
16ddd	8r	8g	8B
16dd	.	.	.
=40	=40	=40	=40
16ccc	4.r	8f#	16A
16ddd	.	.	16B
16bb	.	8g	16G
16ccc	.	.	16A
16aa	.	8a	8F#
16dd	.	.	.
16ee	8cc	8d	8r
16ff#	.	.	.
=41	=41	=41	=41
16gg	16b	16dd	4.r
16dd	16cc	16ee	.
16aa	16a	16cc	.
16dd	16b	16dd	.
16bb	8g	8b	.
16dd	.	.	.
16ddd	8r	8g	8BB
16dd	.	.	.
=42	=42	=42	=42
16ccc	4.r	8f#	16AA
16ddd	.	.	16BB
16bb	.	8g	16GG
16ccc	.	.	16AA
16aa	.	8a	8FF#
16dd	.	.	.
16ee	8cc	8d	8r
16ff#	.	.	.
=43	=43	=43	=43
16gg	16b	16dd	4.r
16dd	16cc	16ee	.
16aa	16a	16cc	.
16dd	16b	16dd	.
16bb	8g	8b	.
16dd	.	.	.
16ddd	8r	8g	8B
16dd	.	.	.
=44	=44	=44	=44
16ccc	4.r	8f#	16A
16ddd	.	.	16B
16bb	.	8g	16G
16ccc	.	.	16A
16aa	.	8a	8F#
16dd	.	.	.
16ee	8dd	8d	8c
16ff#	.	.	.
=45	=45	=45	=45
4gg	16gg	8b	4B
.	16aa	.	.
.	16ff#	8a	.
.	16gg	.	.
8r	16ee	8g	4r
.	16ff#	.	.
8dd	16dd	8f#	.
.	16ee	.	.
=46	=46	=46	=46
16ccc	8cc	8g	8e
16ddd	.	.	.
16bb	4.r	8f#	8d
16ccc	.	.	.
16aa	.	16e	16c
16bb	.	16f#	16d
16gg	.	16d	16B
16aa	.	16e	16c
=47	=47	=47	=47
16ff#	2r	16c	16A
16gg	.	16d	16B
16ee	.	16B	16G
16ff#	.	16c	16A
16dd	.	8A	8F#
16ee	.	.	.
16cc	.	8F#	8A
16dd	.	.	.
=48	=48	=48	=48
16cc	4.r	[2G	8G
16b	.	.	.
16dd	.	.	8E
16cc	.	.	.
16ee	.	.	8BB
16dd	.	.	.
16ee	16e	.	8C
16gg	16c	.	.
=49	=49	=49	=49
4g	4B	4G]	4D
8a	8c	4F#	4DD
16g	16B	.	.
16a	16c	.	.
=50	=50	=50	=50
4g	4B	4G	4GG
4r	4r	8r	8r
.	.	16B	16G
.	.	16c	16A
=51	=51	=51	=51
2r	2r	8d	8B
.	.	8d	8B
.	.	16d	16B
.	.	16B	16G
.	.	16c	16A
.	.	16d	16B
=52	=52	=52	=52
4.r	4.r	8e	8c
.	.	8e	8c
.	.	8e	8c
16ff#	16dd	8r	8r
16gg	16ee	.	.
=53	=53	=53	=53
8aa	8ff#	2r	2r
8aa	8ff#	.	.
16aa	16ff#	.	.
16ff#	16dd	.	.
16gg	16ee	.	.
16aa	16ff#	.	.
=54	=54	=54	=54
8bb	8gg	4.r	2r
8bb	8gg	.	.
8bb	8gg	.	.
8r	16b	16G	.
.	16cc	16A	.
=55	=55	=55	=55
4r	16dd	16B	2r
.	16ee	16c	.
.	16dd	16B	.
.	16ee	16c	.
[4gg	16dd	16B	.
.	16b	16G	.
.	16cc	16A	.
.	16dd	16B	.
=56	=56	=56	=56
8gg]	16ee	16c	2r
.	16ff#	16d	.
8gg#	16ee	16c	.
.	16ff#	16d	.
[4aa	16ee	16c	.
.	16cc	16A	.
.	16dd	16B	.
.	16ee	16c	.
=57	=57	=57	=57
8aa]	16ff#	16d	2r
.	16gg	16e	.
8aa#	16ff#	16d	.
.	16gg	16e	.
[4bb	16ff#	16d	.
.	16dd	16B	.
.	16ee	16c	.
.	16ff#	16d	.
=58	=58	=58	=58
16bb]	16gg	16e	2r
16ddd	16ee	16c	.
16ccc	16ff#	16d	.
16bb	16gg	16e	.
8aa	16aa	16f#	.
.	16ff#	16d	.
8ddd	16gg	16e	.
.	16aa	16f#	.
=59	=59	=59	=59
4.bb	4.gg	4g	8r
.	.	.	8G
.	.	4r	8E
8ccc	8aa	.	8C
=60	=60	=60	=60
8aa	4ff#	8r	4D
8ddd	.	8dd	.
8ccc#	4r	8cc#	4r
8ccc	.	8cc	.
=61	=61	=61	=61
4.bb	4.gg	8b	2r
.	.	8g	.
.	.	8e	.
8ccc	8aa	8c	.
=62	=62	=62	=62
8aa	8ff#	4d	2r
8ddd	8dd	.	.
8ccc#	8cc#	4r	.
8ccc	8cc	.	.
=63	=63	=63	=63
4.bb	4.b	8r	8r
.	.	8f#	8d#
.	.	8f#	8d#
8ccc	8cc	8g	8e
=64	=64	=64	=64
8aa	8a	8f#	8c
8ddd	8gg#	8d	8B
8ccc#	8aa	8e	8A
8ccc	8ff#	8a	8D
=65	=65	=65	=65
8bb	8gg	8d	8G
8aa	4ee	4a	8c
8ccc	.	.	8c
8aa	8ee	8cc	8c
=66	=66	=66	=66
2gg	8dd	8b	[2d
.	8cc#	8b-	.
.	8cc	8a	.
.	8b	8g	.
=67	=67	=67	=67
2aa	2cc	2f#	8d]
.	.	.	8e-
.	.	.	8d
.	.	.	8D
=68	=68	=68	=68
4gg	4.b	8g	4.g
.	.	8G	.
4r	.	8E	.
.	8cc	8C	8a
=69	=69	=69	=69
2r	8a	8D	4f#
.	8dd	8d	.
.	8cc#	8c#	4r
.	8cc	8c	.
=70	=70	=70	=70
4.bb	8b	4B	8r
.	4gg	.	8G
.	.	4r	8E
8ccc	8aa	.	8C
=71	=71	=71	=71
8aa	8ff#	2r	4D
8ddd	8dd	.	.
8ccc#	8cc#	.	4r
8ccc	8cc	.	.
=72	=72	=72	=72
4.bb	4.b	8r	8r
.	.	8f#	8d#
.	.	8f#	8d#
8ccc	8cc	8g	8e
=73	=73	=73	=73
8aa	8a	8f#	8c
8ddd	8gg#	8d	8B
8ccc#	8aa	8e	8A
8ccc	8ff#	8a	8D
=74	=74	=74	=74
8bb	8gg	8g	8G
8aa	4ee	4a	8c
8ccc	.	.	8c
8aa	8ee	8cc	8c
=75	=75	=75	=75
2gg	8dd	8b	2d
.	8cc#	8b-	.
.	8cc	8a	.
.	8b	8g	.
=76	=76	=76	=76
2aa	2cc	2f#	8E-
.	.	.	8D
.	.	.	8DD
.	.	.	8D
=77	=77	=77	=77
4gg	4b	4g	8GG
.	.	.	8GG
4r	8r	8r	8GG
.	16f#	16A	8GG
.	16g	16B	.
=78	=78	=78	=78
4.r	8a	8c	8GG
.	8a	8c	8GG
.	8a	8c	8GG
8ff#	8a	8c	8GG
=79	=79	=79	=79
16gg	4g	4B	8GG
16aa	.	.	.
16bb	.	.	8GG
16gg	.	.	.
8dd	8r	8r	8GG
8r	16A	16F#	8GG
.	16B	16G	.
=80	=80	=80	=80
4.r	8c	8A	8GG
.	8c	8A	8GG
.	8c	8A	8GG
8f#	8c	8A	8GG
=81	=81	=81	=81
16g	4B	4G	8GG
16a	.	.	.
16b	.	.	8GG
16g	.	.	.
8d	4r	8r	8GG
8r	.	16B	16G
.	.	16c	16A
=82	=82	=82	=82
2r	2r	8d	8B
.	.	8d	8B
.	.	8d	8B
.	.	16d	16B
.	.	16e	16c
=83	=83	=83	=83
4.r	4.r	8f	8d
.	.	8f	8d
.	.	8f	8d
16b	16g	8r	8r
16cc	16a	.	.
=84	=84	=84	=84
8dd	8b	2r	2r
8dd	8b	.	.
8dd	8b	.	.
16dd	16b	.	.
16ee	16cc	.	.
=85	=85	=85	=85
8ff	8dd	2r	2r
8ff	8dd	.	.
8ff	8dd	.	.
8r	8r	.	.
=86	=86	=86	=86
4.r	4.r	4.r	4.r
16d	16d	16d	16D
16e	16e	16e	16E
=87	=87	=87	=87
8f	8f	8f	8F
8f	8f	8f	8F
8f	8f	8f	8F
8f	8f	8f	8F
=88	=88	=88	=88
4G#	2G#	4E	2EE
[4e	.	4e	.
=89	=89	=89	=89
4e]	2A	4c	2FF
4d#	.	8A	.
.	.	8a	.
=90	=90	=90	=90
4e	4B	16g#	4EE
.	.	16a	.
.	.	16b	.
.	.	16g#	.
8r	8r	8e	4r
8aa	8dd#	8f	.
=91	=91	=91	=91
16gg#	4ee	4e	2r
16aa	.	.	.
16bb	.	.	.
16gg#	.	.	.
8ee	8r	8r	.
8ddd#	8aa	8f	.
=92	=92	=92	=92
4eee	16gg#	4e	2r
.	16aa	.	.
.	16bb	.	.
.	16gg#	.	.
4r	8ee	4r	.
.	8r	.	.
=93	=93	=93	=93
2r	2r	2r	2r
=94	=94	=94	=94
2r	2r	4.r	2r
.	.	16A	.
.	.	16B	.
=95	=95	=95	=95
2r	4.r	16c	8AA
.	.	16e	.
.	.	16a	16c
.	.	16e	16B
.	.	16c	8A
.	.	16e	.
.	16ee	16B	8G#
.	16dd	16e	.
=96	=96	=96	=96
4.r	8cc	16c	4A
.	.	16e	.
.	16cc	16a	.
.	16b	16e	.
.	8a	16c	4r
.	.	16e	.
16ccc	8r	16A	.
16aa	.	16e	.
=97	=97	=97	=97
8eee	2r	16B	4GG#
.	.	16d	.
8eee	.	16e	.
.	.	16d	.
8eee	.	16B	8r
.	.	16e	.
8eee	.	16B	16G#
.	.	16c	16A
=98	=98	=98	=98
4ee	8r	16d	8B
.	.	16e	.
.	16b	16g#	8r
.	16a	16e	.
8r	8g#	16d	8E
.	.	16e	.
16ddd	16ee	16g#	8r
16gg#	16dd	16e	.
=99	=99	=99	=99
4aa	4cc	16c	8AA
.	.	16e	.
.	.	16a	16c
.	.	16e	16B
4r	8r	16c	8A
.	.	16e	.
.	16ee	16B	8G#
.	16dd	16e	.
=100	=100	=100	=100
4.r	8cc	16c	4A
.	.	16e	.
.	16cc	16a	.
.	16b	16e	.
.	8a	16c	4r
.	.	16e	.
16ccc	8r	16A	.
16aa	.	16e	.
=101	=101	=101	=101
8eee	2r	16B	4GG#
.	.	16d	.
8eee	.	16e	.
.	.	16d	.
8eee	.	16B	8r
.	.	16e	.
8eee	.	16B	16G#
.	.	16c	16A
=102	=102	=102	=102
4ee	8r	16d	8B
.	.	16e	.
.	16b	16g#	8r
.	16a	16e	.
8r	8g#	16d	8E
.	.	16e	.
16ddd	16ee	16g#	8r
16gg#	16dd	16e	.
=103	=103	=103	=103
8aa	4cc	16c	4A
.	.	16e	.
8aa	.	16a	.
.	.	16e	.
8aa	8r	16c	4r
.	.	16e	.
8aa	16e	16c	.
.	16c	16e	.
=104	=104	=104	=104
4a	4A	16c	4A
.	.	16e	.
.	.	16a	.
.	.	16e	.
8r	4r	16c	4r
.	.	16e	.
16aa	.	16c	.
16ccc	.	16e	.
=105	=105	=105	=105
8bb-	4.c	16c	4E
.	.	16g	.
8bb-	.	16b-	.
.	.	16g	.
8bb-	.	16b-	8r
.	.	16g	.
8bb-	16e	16b-	16C
.	16f	16g	16D
=106	=106	=106	=106
4c	4g	16c	4E
.	.	16g	.
.	.	16b-	.
.	.	16g	.
8r	8r	16b-	4r
.	.	16g	.
16gg	16cc	16b-	.
16ee	16b-	16g	.
=107	=107	=107	=107
4ff	16a	8a	4FF
.	16cc	.	.
.	16ff	16a	.
.	16cc	16g	.
8r	16a	8f	4r
.	16cc	.	.
16ccc	16g	8e	.
16bb-	16cc	.	.
=108	=108	=108	=108
8aa	16a	4f	4F
.	16cc	.	.
16aa	16ff	.	.
16gg	16cc	.	.
8ff	16a	4r	8r
.	16cc	.	.
8r	16f	.	16A
.	16cc	.	16F
=109	=109	=109	=109
2r	16g	4E	8c
.	16b-	.	.
.	16cc	.	8c
.	16b-	.	.
.	16g	8r	8c
.	16cc	.	.
.	16g	16e	8c
.	16a	16f	.
=110	=110	=110	=110
8r	16b-	8g	4C
.	16cc	.	.
16gg	16ee	8r	.
16ff	16cc	.	.
8ee	16b-	8c	4r
.	16cc	.	.
16ccc	16ee	8r	.
16bb-	16cc	.	.
=111	=111	=111	=111
4aa	16a	4f	8FF
.	16cc	.	.
.	16ff	.	16A
.	16cc	.	16G
4r	16a	8r	8F
.	16cc	.	.
.	16g	16cc	8E
.	16cc	16b-	.
=112	=112	=112	=112
4.r	16a	8a	4F
.	16cc	.	.
.	16ff	16a	.
.	16cc	16g	.
.	16a	8f	4r
.	16cc	.	.
16aa	16f	8r	.
16ff	16cc	.	.
=113	=113	=113	=113
8ccc	16g	2r	4EE
.	16b-	.	.
8ccc	16cc	.	.
.	16b-	.	.
8ccc	16g	.	8r
.	16cc	.	.
8ccc	16g	.	16E
.	16a	.	16F
=114	=114	=114	=114
4cc	16b-	8r	8G
.	16cc	.	.
.	16ee	16g	8r
.	16cc	16f	.
8r	16b-	8e	8C
.	16cc	.	.
16bb-	16ee	16c	8r
16ee	16cc	16B-	.
=115	=115	=115	=115
8ff	16a	2A	2F
.	16cc	.	.
8aa	16ff	.	.
.	16cc	.	.
8ccc	16a	.	.
.	16cc	.	.
8aa	16a	.	.
.	16cc	.	.
=116	=116	=116	=116
[2eee-	16a	2a	2F#
.	16cc	.	.
.	16ee-	.	.
.	16cc	.	.
.	16ee-	.	.
.	16cc	.	.
.	16ee-	.	.
.	16cc	.	.
=117	=117	=117	=117
8eee-]	16g	2g	2G
.	16cc	.	.
8ccc	16ee-	.	.
.	16cc	.	.
8gg	16ee-	.	.
.	16cc	.	.
8ee-	16ee-	.	.
.	16cc	.	.
=118	=118	=118	=118
[2cc	16g-	2g-	2A-
.	16cc	.	.
.	16ee-	.	.
.	16cc	.	.
.	16ee-	.	.
.	16cc	.	.
.	16ee-	.	.
.	16cc	.	.
=119	=119	=119	=119
8cc]	16f	2f	2A
.	16cc	.	.
8gg	16ee-	.	.
.	16cc	.	.
8ff	16ee-	.	.
.	16cc	.	.
8ee-	16ee-	.	.
.	16cc	.	.
=120	=120	=120	=120
16dd	4b-	[2B-	4B-
16b-	.	.	.
16a	.	.	.
16b-	.	.	.
16dd	8r	.	4r
16b-	.	.	.
16dd	16B-	.	.
16ee-	16c	.	.
=121	=121	=121	=121
16ff	4d	2B-_	2r
16b-	.	.	.
16a	.	.	.
16b-	.	.	.
16ff	8r	.	.
16b-	.	.	.
16ff	16d	.	.
16gg	16e-	.	.
=122	=122	=122	=122
16aa-	8f	2B-_	2r
16bb-	.	.	.
16gg	8e-	.	.
16aa-	.	.	.
16ff	8d	.	.
16gg	.	.	.
16ee-	8e-	.	.
16ff	.	.	.
=123	=123	=123	=123
16dd	16f	2B-]	2r
16ee-	16g	.	.
16ff	16a-	.	.
16ee-	16g	.	.
16dd	16f	.	.
16cc	16a-	.	.
16b-	16g	.	.
16a-	16f	.	.
=124	=124	=124	=124
4g	16g	4e-	4E-
.	16e-	.	.
.	16d	.	.
.	16e-	.	.
4r	16g	4r	8r
.	16e-	.	.
.	16g	.	16E-
.	16a-	.	16F
=125	=125	=125	=125
4.r	16b-	4.r	4G
.	16e-	.	.
.	16d	.	.
.	16e-	.	.
.	16b-	.	8r
.	16e-	.	.
16bb-	16b-	16g	16G
16aa-	16cc	16a-	16A-
=126	=126	=126	=126
16gg	4dd-	4b-	4B-
16ee-	.	.	.
16dd	.	.	.
16ee-	.	.	.
16gg	8r	8r	4r
16ee-	.	.	.
16gg	16dd-	16b-	.
16aa-	16cc	16a-	.
=127	=127	=127	=127
16bb-	4b-	4g	2r
16ee-	.	.	.
16dd	.	.	.
16ee-	.	.	.
16bb-	8r	8r	.
16ee-	.	.	.
16bb-	16b-	16g	.
16ccc	16a-	16f	.
=128	=128	=128	=128
2ddd-	[2g	[2e	16CC
.	.	.	16C
.	.	.	16BB
.	.	.	16C
.	.	.	16BB
.	.	.	16C
.	.	.	16BB
.	.	.	16C
=129	=129	=129	=129
4ccc	2g]	2e]	16CC
.	.	.	16C
.	.	.	16BB
.	.	.	16C
4bb-	.	.	16BB
.	.	.	16C
.	.	.	16BB
.	.	.	16C
=130	=130	=130	=130
4.aa	4.f	16f	4FF
.	.	16ee-	.
.	.	16dd	.
.	.	16ee-	.
.	.	16cc	4r
.	.	16ee-	.
16ccc	16a	16cc	.
16ddd	16g	16b-	.
=131	=131	=131	=131
8eee-	4.f	16a	4FF
.	.	16ee-	.
8ccc	.	16dd	.
.	.	16ee-	.
8aa	.	16cc	4r
.	.	16ee-	.
16ccc	16a	16cc	.
16ddd	16g	16b-	.
=132	=132	=132	=132
8eee-	4.f#	16a	4FF#
.	.	16ee-	.
8ccc	.	16dd	.
.	.	16ee-	.
8aa	.	16cc	4r
.	.	16ee-	.
16ccc	16a	16cc	.
16ddd	16g	16b-	.
=133	=133	=133	=133
8eee-	4.f#	16a	4FF#
.	.	16ee-	.
8ccc	.	16dd	.
.	.	16ee-	.
16aa	.	16cc	4r
16ccc	.	16ee-	.
16bb-	8f#	16dd	.
16aa	.	16cc	.
=134	=134	=134	=134
4gg	4.g	4b-	16GG
.	.	.	16G
.	.	.	16F#
.	.	.	16G
4r	.	4r	16A
.	.	.	16G
.	16g	.	16F
.	16b	.	16G
=135	=135	=135	=135
4.r	8cc	8g	16E-
.	.	.	16G
.	8b	8g	16D
.	.	.	16G
.	8cc	8g	16E-
.	.	.	16G
16ee-	8ee-	8g	16C
16cc	.	.	16G
=136	=136	=136	=136
8gg	16dd	4g	16BB-
.	16ee-	.	16G
8gg	16cc	.	16AA
.	16dd	.	16G
8gg	8b-	4r	16GG
.	.	.	16G
8gg	16g	.	16F
.	16b	.	16G
=137	=137	=137	=137
4gg	8cc	8g	16E-
.	.	.	16G
.	8b	8g	16D
.	.	.	16G
8r	8cc	8g	16E-
.	.	.	16G
16ee-	8ee-	8g	16C
16cc	.	.	16G
=138	=138	=138	=138
8dd	16dd	4g	16BB-
.	16ee-	.	16G
8ff#	16cc	.	16AA
.	16dd	.	16G
8gg	8b-	4r	16BB-
.	.	.	16G
8bb-	8B-	.	16GG
.	.	.	16G
=139	=139	=139	=139
16cc#	4A	[2a	4AA
16bb-	.	.	.
16aa	.	.	.
16gg#	.	.	.
16aa	4e	.	4C#
16ee	.	.	.
16ff	.	.	.
16gg	.	.	.
=140	=140	=140	=140
16ff	4f	4a]	4D
16dd	.	.	.
16cc#	.	.	.
16dd	.	.	.
16ff	4r	4r	4r
16dd	.	.	.
16aa	.	.	.
16ff	.	.	.
=141	=141	=141	=141
16ddd	4.f	4.d	4.D
16aa	.	.	.
16fff	.	.	.
16eee	.	.	.
16ddd	.	.	.
16ccc	.	.	.
16bb	8f#	8d#	8D#
16aa	.	.	.
=142	=142	=142	=142
16gg#	4.e	4e	4E
16ee	.	.	.
16dd#	.	.	.
16ee	.	.	.
16ff#	.	8r	4r
16ee	.	.	.
16gg#	8e	8dd	.
16ee	.	.	.
=143	=143	=143	=143
16aa	16ee	16cc	4.r
16ee	16ff	16dd	.
16bb	16dd	16b	.
16ee	16ee	16cc	.
16ccc	8cc	8a	.
16ee	.	.	.
16eee	8a	8r	8c
16ee	.	.	.
=144	=144	=144	=144
16ddd	8g#	4.r	16B
16eee	.	.	16c
16ccc	8a	.	16A
16ddd	.	.	16B
16bb	8b	.	8G#
16ee	.	.	.
16ff#	8e	8dd	8r
16gg#	.	.	.
=145	=145	=145	=145
16aa	16ee	16cc	4.r
16ee	16ff	16dd	.
16bb	16dd	16b	.
16ee	16ee	16cc	.
16ccc	8cc	8a	.
16ee	.	.	.
16eee	8a	8r	8C
16ee	.	.	.
=146	=146	=146	=146
16ddd	8g#	2r	16BB
16eee	.	.	16C
16ccc	8a	.	16AA
16ddd	.	.	16BB
16bb	8b	.	8GG#
16ee	.	.	.
16ff#	8e	.	8D
16gg#	.	.	.
=147	=147	=147	=147
16aa	16ee	2e	8C
16ee	16ff	.	.
16bb	16dd	.	8BB
16ee	16ee	.	.
16ccc	8cc	.	8AA
16bb	.	.	.
16aa	8ee	.	8C
16gg	.	.	.
=148	=148	=148	=148
16ff#	4a	4.d	4D
16dd	.	.	.
16ee-	.	.	.
16dd	.	.	.
16ee	8r	.	4r
16dd	.	.	.
16ff#	8cc	8d	.
16dd	.	.	.
=149	=149	=149	=149
16gg	16b	16dd	4.r
16dd	16cc	16ee	.
16aa	16a	16cc	.
16dd	16b	16dd	.
16bb	8g	8b	.
16dd	.	.	.
16ddd	8r	8g	8B
16dd	.	.	.
=150	=150	=150	=150
16ccc	4.r	8f#	16A
16ddd	.	.	16B
16bb	.	8g	16G
16ccc	.	.	16A
16aa	.	8a	8F#
16dd	.	.	.
16ee	8cc	8d	8r
16ff#	.	.	.
=151	=151	=151	=151
16gg	16b	16dd	4.r
16dd	16cc	16ee	.
16aa	16a	16cc	.
16dd	16b	16dd	.
16bb	8g	8b	.
16dd	.	.	.
16ddd	8r	8g	8BB
16dd	.	.	.
=152	=152	=152	=152
16ccc	4.r	8f#	16AA
16ddd	.	.	16BB
16bb	.	8g	16GG
16ccc	.	.	16AA
16aa	.	8a	8FF#
16dd	.	.	.
16ee	8a	8d	8C
16ff#	.	.	.
=153	=153	=153	=153
16gg	4b	4g	4BB
16dd	.	.	.
16gg	.	.	.
16aa	.	.	.
16bb	8r	8r	4r
16gg	.	.	.
16bb	16dd	16b	.
16ccc	16cc	16a	.
=154	=154	=154	=154
4ddd	16b	16g	4GG
.	16g	16d	.
.	16b	16g	.
.	16cc	16a	.
8r	16dd	16b	4r
.	16b	16g	.
16gg	16dd	16b	.
16aa	16cc	16a	.
=155	=155	=155	=155
16bb	4b	4g	4GG
16gg	.	.	.
16bb	.	.	.
16ccc	.	.	.
16ddd	8r	8r	4r
16bb	.	.	.
16ddd	16ff	16dd	.
16eee	16ee	16cc	.
=156	=156	=156	=156
4fff	16dd	16b	4GG
.	16b	16g	.
.	16dd	16b	.
.	16ee	16cc	.
8r	16ff	16dd	4r
.	16dd	16b	.
16ddd	16ff	16dd	.
16eee	16ee	16cc	.
=157	=157	=157	=157
8fff	8dd	8b	8GG
8r	8r	8r	8r
8ddd	8ff	8b	8GG
8r	8r	8r	8r
=158	=158	=158	=158
8bb	8ff	8dd	8GG
4.r	4.r	4.r	4.r
=159	=159	=159	=159
8ff	16B	8d	8GG
.	16c	.	.
8r	16B	8r	8r
.	16G	.	.
8dd	16d	8f	8GG
.	16e	.	.
8r	16d	8r	8r
.	16G	.	.
=160	=160	=160	=160
4.b	4.f	4.d	4.GG
8r	16e	16c	8r
.	16f	16d	.
=161	=161	=161	=161
4.r	8g	8e	2r
.	8g	8e	.
.	8g	8e	.
8cc	8g	8e	.
=162	=162	=162	=162
16b	4.g	4.f	8r
16cc	.	.	.
16dd	.	.	16G
16b	.	.	16A
8g	.	.	8B
8r	16e	16c	8r
.	16f	16d	.
=163	=163	=163	=163
4.r	8g	8e	2r
.	8g	8e	.
.	8g	8e	.
8gg	8g	8e	.
=164	=164	=164	=164
16ff	4.g	4.f	8r
16ee	.	.	.
16dd	.	.	16B
16cc	.	.	16c
8b	.	.	8d
8r	16e	16c	8r
.	16f	16d	.
=165	=165	=165	=165
4.r	8g	8e	2r
.	8g	8e	.
.	8g	8e	.
8cc	8g	8e	.
=166	=166	=166	=166
16b	4.g	4f	4.r
16cc	.	.	.
16dd	.	.	.
16b	.	.	.
8cc	.	8e	.
8ee	8G	8c	8C
=167	=167	=167	=167
4g	4A	8c	8D
.	.	16B	8D
.	.	16c	.
8.f	4B	8d	8GG
.	.	8d	8GG
32e	.	.	.
32f	.	.	.
=168	=168	=168	=168
4e	4c	4c	16CC
.	.	.	16C
.	.	.	16BB
.	.	.	16C
8.r	4r	8r	16D
.	.	.	16C
.	.	16E	16BB
32cc	.	16G	16C
32ee	.	.	.
=169	=169	=169	=169
8ff	8cc	8F	16AA
.	.	.	16C
8ee	8cc	8G	16GG
.	.	.	16C
8ff	8cc	8A	16AA
.	.	.	16C
8aa	8cc	8F	16FF
.	.	.	16C
=170	=170	=170	=170
16gg	4cc	4C	16EE
16aa	.	.	16C
16ff	.	.	16DD
16gg	.	.	16C
8ee	4r	8r	16CC
.	.	.	16C
16cc	.	16E	16BB-
16ee	.	16G	16C
=171	=171	=171	=171
8ff	8cc	8F	16AA
.	.	.	16C
8ee	8cc	8G	16GG
.	.	.	16C
8ff	8cc	8A	16AA
.	.	.	16C
8aa	8cc	8F	16FF
.	.	.	16C
=172	=172	=172	=172
16gg	4cc	4C	16EE
16aa	.	.	16C
16ff	.	.	16DD
16gg	.	.	16C
8ee	4r	8r	16CC
.	.	.	16C
16cc	.	16e	16BB-
16ee	.	16g	16C
=173	=173	=173	=173
8ff	8cc	8f	16AA
.	.	.	16C
8ee	8cc	8g	16GG
.	.	.	16C
8ff	8cc	8a	16AA
.	.	.	16C
8aa	8cc	8f	16FF
.	.	.	16C
=174	=174	=174	=174
8gg	[2cc	8e	16EE
.	.	.	16C
8ff#	.	8d	16DD
.	.	.	16C
8gg	.	8c	16EE
.	.	.	16C
8bb-	.	8e	16CC
.	.	.	16C
=175	=175	=175	=175
16aa	8cc]	8f	8FF
16bb-	.	.	.
16gg	8cc#	8e	8F
16aa	.	.	.
16ff	8dd	8f	8F
16gg	.	.	.
16ee	8cc#	8g	8F
16ff	.	.	.
=176	=176	=176	=176
16dd	4dd	4a	8F
16ee	.	.	.
16ff	.	.	8F
16ee	.	.	.
16dd	8r	8r	8F#
16cc	.	.	.
16b	8a	8c	8F#
16a	.	.	.
=177	=177	=177	=177
4g	4d	4B	[2GG
8r	8r	8r	.
16g	16d	16B	.
16a	16e	16c	.
=178	=178	=178	=178
16b	8f	8d	2GG_
16cc	.	.	.
16dd	8f	8d	.
16cc	.	.	.
16b	8f	8d	.
16cc	.	.	.
16a	16e	16c	.
16b	16f	16d	.
=179	=179	=179	=179
16cc	8g	8e	2GG_
16dd	.	.	.
16ee	8g	8e	.
16dd	.	.	.
16cc	8g	8e	.
16dd	.	.	.
16b	16f	16d	.
16cc	16g	16e	.
=180	=180	=180	=180
16dd	8a	8f	2GG_
16ee	.	.	.
16ff	8a	8f	.
16ee	.	.	.
16dd	8a	8f	.
16ee	.	.	.
16cc	8g	8e	.
16dd	.	.	.
=181	=181	=181	=181
16b	8f	8d	2GG_
16cc	.	.	.
16dd	8f	8d	.
16cc	.	.	.
16b	8f	8d	.
16cc	.	.	.
16a	8e	8c	.
16b	.	.	.
=182	=182	=182	=182
16g	2d	2B	2GG]
16a	.	.	.
16b	.	.	.
16a	.	.	.
16g	.	.	.
16a	.	.	.
16f	.	.	.
16g	.	.	.
=183	=183	=183	=183
16e	4e	2c	8C
16cc	.	.	.
16b	.	.	8C
16cc	.	.	.
16b	4g	.	8E
16cc	.	.	.
16ee	.	.	8E
16cc	.	.	.
=184	=184	=184	=184
16b	4c	4c	8F
16a	.	.	.
16gg#	.	.	8F
16aa	.	.	.
16gg#	8r	4r	8F
16aa	.	.	.
16ff	16a	.	8F
16dd	16f	.	.
=185	=185	=185	=185
4cc	4e	8r	8G
.	.	8g	8G
8dd	8f	8B	8G
16cc	16e	8B	8G
16dd	16f	.	.
=186	=186	=186	=186
4cc	4e	4c	4C
4r	4r	8r	8r
.	.	16E	16CC
.	.	16F	16DD
=187	=187	=187	=187
2r	2r	8G	8EE
.	.	8G	8EE
.	.	16G	16EE
.	.	16E	16CC
.	.	16F	16DD
.	.	16G	16EE
=188	=188	=188	=188
4.r	4.r	8A	8FF
.	.	8A	8FF
.	.	8A	8FF
16b	16g	8r	8r
16cc	16a	.	.
=189	=189	=189	=189
8dd	8b	2r	2r
8dd	8b	.	.
16dd	16b	.	.
16b	16g	.	.
16cc	16a	.	.
16dd	16b	.	.
=190	=190	=190	=190
8ee	8cc	4.r	2r
8ee	8cc	.	.
8ee	8cc	.	.
8r	16e	16c	.
.	16f	16d	.
=191	=191	=191	=191
4r	16g	16e	2r
.	16a	16f	.
.	16g	16e	.
.	16a	16f	.
[4cc	16g	16e	.
.	16e	16c	.
.	16f	16d	.
.	16g	16e	.
=192	=192	=192	=192
8cc]	16a	16f	2r
.	16b	16g	.
8cc#	16a	16f	.
.	16b	16g	.
[4dd	16a	16f	.
.	16f	16d	.
.	16g	16e	.
.	16a	16f	.
=193	=193	=193	=193
8dd]	16b	16g	2r
.	16cc	16a	.
8dd#	16b	16g	.
.	16cc	16a	.
[4ee	16b	16g	.
.	16g	16e	.
.	16a	16f	.
.	16b	16g	.
=194	=194	=194	=194
16ee]	16cc	16a	2r
16gg	16a	16f	.
16ff	16b	16g	.
16ee	16cc	16a	.
8dd	16dd	16b	.
.	16b	16g	.
8gg	16cc	16a	.
.	16dd	16b	.
=195	=195	=195	=195
4.ee	4.cc	4cc	8r
.	.	.	8c
.	.	4r	8A
8ff	8dd	.	8F
=196	=196	=196	=196
8dd	4b	8r	4G
8gg	.	8g	.
8ff#	4r	8f#	4r
8ff	.	8f	.
=197	=197	=197	=197
4.ee	4.cc	8e	2r
.	.	8c	.
.	.	8A	.
8ff	8dd	8F	.
=198	=198	=198	=198
8dd	8b	4G	2r
8gg	8g	.	.
8ff#	8f#	4r	.
8ff	8f	.	.
=199	=199	=199	=199
4.ee	4.e	8r	8r
.	.	8B	8G#
.	.	8B	8G#
8ff	8f	8c	8A
=200	=200	=200	=200
8dd	8d	8B	8F
8gg	8cc#	8g	8E
8ff#	8dd	8a	8D
8ff	8b	8d	8G
=201	=201	=201	=201
8ee	8cc	8g	8C
8dd	4a	4a	8F
8ff	.	.	8F
8dd	8a	8f	8F
=202	=202	=202	=202
2cc	8g	8e	[2G
.	8f#	8e-	.
.	8f	8d	.
.	8e	8c	.
=203	=203	=203	=203
2dd	2f	2B	8G]
.	.	.	8A-
.	.	.	8G
.	.	.	8GG
=204	=204	=204	=204
4cc	4.ee	8c	4.c
.	.	8c	.
4r	.	8A	.
.	8ff	8F	8d
=205	=205	=205	=205
2r	8dd	8G	4B
.	8gg	8g	.
.	8ff#	8f#	4r
.	8ff	8f	.
=206	=206	=206	=206
4.eee	8ee	4e	8r
.	4cc	.	8C
.	.	4r	8AA
8fff	8dd	.	8FF
=207	=207	=207	=207
8ddd	8b	2r	4GG
8ggg	8gg	.	.
8fff#	8ff#	.	4r
8fff	8ff	.	.
=208	=208	=208	=208
4.eee	4.ee	8r	8r
.	.	8b	8G#
.	.	8b	8G#
8fff	8ff	8cc	8A
=209	=209	=209	=209
8ddd	8dd	8b	8F
8ggg	8cc#	8g	8E
8fff#	8cc	8a	8D
8fff	8b	8dd	8GG
=210	=210	=210	=210
8eee	8cc	8cc	8C
8ddd	4aa	4dd	8F
8fff	.	.	8F
8ddd	8aa	8f	8F
=211	=211	=211	=211
2ccc	8gg	8e	2G
.	8ff#	8e-	.
.	8ff	8d	.
.	8ee	8c	.
=212	=212	=212	=212
2ddd	2ff	2B	8AA-
.	.	.	8GG
.	.	.	8G
.	.	.	8GG
=213	=213	=213	=213
16ccc	2ee-	8c	2FF#
16ccc	.	.	.
16bb	.	4cc	.
16ccc	.	.	.
16ddd	.	.	.
16ccc	.	.	.
16eee-	.	8cc	.
16ccc	.	.	.
=214	=214	=214	=214
16r	2ee	2cc	2GG
16ccc	.	.	.
16bb	.	.	.
16ccc	.	.	.
16ddd	.	.	.
16ccc	.	.	.
16eee	.	.	.
16ccc	.	.	.
=215	=215	=215	=215
16r	2ff	2cc	2AA
16ccc	.	.	.
16bb	.	.	.
16ccc	.	.	.
16ddd	.	.	.
16ccc	.	.	.
16fff	.	.	.
16ccc	.	.	.
=216	=216	=216	=216
16r	4.gg	2cc	2EE
16ccc	.	.	.
16bb	.	.	.
16ccc	.	.	.
16eee	.	.	.
16ccc	.	.	.
16ggg	8ee	.	.
16ccc	.	.	.
=217	=217	=217	=217
2aaa	2cc	4cc	[2FF
.	.	4r	.
=218	=218	=218	=218
4bbb	4dd	2r	4FF]
4cccc	4ee-	.	4FF#
=219	=219	=219	=219
4G	8ee	8cc	4GG
.	4ee	4cc	.
16ff#	.	.	4r
16gg	.	.	.
16ff#	[8ee	[8cc	.
16gg	.	.	.
=220	=220	=220	=220
16ff#	8ee]	8cc]	2r
16gg	.	.	.
16ff#	4ee	4cc	.
16gg	.	.	.
16ccc	.	.	.
16gg	.	.	.
16ff	8cc	8cc	.
16ee	.	.	.
=221	=221	=221	=221
[2dd	16d	[2b	8GG
.	16f	.	.
.	16e	.	8GG
.	16f	.	.
.	16g	.	8GG
.	16f	.	.
.	16e	.	8GG
.	16f	.	.
=222	=222	=222	=222
2dd]	16b	2b]	8GG
.	16f	.	.
.	16e	.	8GG
.	16f	.	.
.	16g	.	8GG
.	16f	.	.
.	16e	.	8GG
.	16f	.	.
=223	=223	=223	=223
4cc	4e	4cc	4C
4r	8r	8r	4r
.	16e	16c	.
.	16f	16d	.
=224	=224	=224	=224
4.r	8g	8e	2r
.	8g	8e	.
.	8g	8e	.
8cc	8g	8e	.
=225	=225	=225	=225
16b	4.g	4.f	8r
16cc	.	.	.
16dd	.	.	16G
16b	.	.	16A
8g	.	.	8B
8r	16d	16B	8r
.	16e	16c	.
=226	=226	=226	=226
4.r	8f	8d	4.r
.	8f	8d	.
.	8f	8d	.
8b	8f	8d	8GG
=227	=227	=227	=227
4cc	4.e	4.c	16EE
.	.	.	16FF
.	.	.	16GG
.	.	.	16EE
4r	.	.	8CC
.	16ee	16cc	8r
.	16ff	16dd	.
=228	=228	=228	=228
4.r	8gg	8ee	2r
.	8gg	8ee	.
.	8gg	8ee	.
8ccc	8gg	8ee	.
=229	=229	=229	=229
16bb	4.gg	4.ff	8r
16ccc	.	.	.
16ddd	.	.	16G
16eee	.	.	16A
8fff	.	.	8B
8r	16d	16B	8r
.	16e	16c	.
=230	=230	=230	=230
4.r	8f	8d	4.r
.	8f	8d	.
.	8f	8d	.
8d 8b	8f 8G	8d	8GG
=231	=231	=231	=231
4e 4cc	4G 4e	4c	16EE
.	.	.	16FF
.	.	.	16GG
.	.	.	16EE
4r	4r	4r	8CC
.	.	.	8r
=232	=232	=232	=232
2r	2r	2r	2r
==	==	==	==
*-	*-	*-	*-
!!!RWG1: This file contains only pitch and duration data.
!!!RWG2: Transposing instruments are not transposed.
!!!RWG3: Spines may have incompatible meters.
!!!RWG4: Durations of rests and tied notes may be interpreted.
!!!RWG: Key is interpreted using the Humdrum key tool.
!!!GTL: 6 Quartetti ("Prussian")
!!!AFT: stage1
!!!END: 1997/04/15
!!format changes:
!!content changes:
!!public access: complete
!!!KEY: 3842243293
!!!EMD: Converted from MuseData to Humdrum Dec 16, 2000, by Andreas Kornstaedt using muse2kern.
